svgs/regular/envelope.svg

<svg xmlns="http://www.w3.org/2000/svg" viewBox="0 0 512 512"><!-- Font Awesome Pro 6.0.0-alpha2 by @fontawesome - https://fontawesome.com License - https://fontawesome.com/license (Commercial License) --><path d="M448 64H64C28.654 64 0 92.654 0 128V384C0 419.346 28.654 448 64 448H448C483.348 448 512 419.346 512 384V128C512 92.654 483.348 64 448 64ZM64 112H448C456.822 112 464 119.178 464 128V150.162L297.25 289.141C274.062 308.422 237.906 308.406 214.781 289.156L48 150.162V128C48 119.178 55.178 112 64 112ZM448 400H64C55.178 400 48 392.822 48 384V212.662L184.062 326.047C204.25 342.828 229.781 352.078 256 352.078S307.75 342.828 327.969 326.031L464 212.664V384C464 392.822 456.822 400 448 400Z"/></svg>

<svg xmlns="http://www.w3.org/2000/svg" viewBox="0 0 512 512"><!--! Font Awesome Pro 6.0.0-alpha3 by @fontawesome - https://fontawesome.com License - https://fontawesome.com/license (Commercial License) --><path d="M448 64H64C28.65 64 0 92.65 0 128v256c0 35.35 28.65 64 64 64h384c35.35 0 64-28.65 64-64V128C512 92.65 483.3 64 448 64zM64 112h384c8.822 0 16 7.178 16 16v22.16l-166.8 138.1c-23.19 19.28-59.34 19.27-82.47 .0156L48 150.2V128C48 119.2 55.18 112 64 112zM448 400H64c-8.822 0-16-7.178-16-16V212.7l136.1 113.4C204.3 342.8 229.8 352 256 352s51.75-9.188 71.97-25.98L464 212.7V384C464 392.8 456.8 400 448 400z"/></svg>
